X:1
T:Goldberg Variations: Variation XV
T:BWV 988
T:J. S. Bach
%%score { ( 1 3 ) | 2 }
L:1/8
M:2/4
K:Bb
V:1 treble nm="Harp"
V:3 treble 
V:2 bass 
V:1
 z/[Q:1/4=96]"^Andante" G/G/F/ F/E/E/D/ | z/ d/d/=e/ e/^f/f/g/ | g2- g/a/b/c'/ | %3
 d'/a/a/4^g/4a/ d2- | de/f/ e/d/d/c/ | B z2 c | g/4a/4^f/g/a/ b/c'/d'/c'/ | b/a/4g/4 d2 e | %8
 d z z/ e/d/c/ | B/c/c/d/ d/e/e/d/ | d z z a | bd/=e/- e/fg/ | aB ca | z g/4a/4ggg/- | %14
 g/f/4g/4a/b/ a/f/^c | z g- g/^f/4=e/4f | z/ G/G/F/ F/E/E/D/ | z/ d/d/=e/ e/^f/f/g/ | %18
 g2- g/a/b/c'/ | d'/a/a/4^g/4a/ d2- | de/f/ e/d/d/c/ | B z2 c | g/4a/4^f/g/a/ b/c'/d'/c'/ | %23
 b/a/4g/4 d2 e | d z z/ e/d/c/ | B/c/c/d/ d/e/e/d/ | d z z a | bd/=e/- e/fg/ | aB ca | %29
 z g/4a/4ggg/- | g/f/4g/4a/b/ a/f/^c | z g- g/^f/4=e/4f | z ^F GA | z e dc | g/G_A/- A/Bc/ | %35
 Bf gd | e/d/c z/ Bc/ | d/B/F/D/ E/F/G/_A/ | B4- | B/c/4d/4e/4d/4c/ d/e/4f/4e/4f/4g/ | f z z2 | %41
 z/ c/-c/d/ ^d/=e/G/e/ | ^f2- f/g/a/b/ | c'/b/a/g/ ^f/g/f- | f/a/g z c | G>A B/c/d/=e/ | %46
 ^f/g/a/f/ g/f/=e/4d/4c'/- | c'/^f/g/a/ b/c'/d' | z ^F GA | z e dc | g/G_A/- A/Bc/ | Bf gd | %52
 e/d/c z/ Bc/ | d/B/F/D/ E/F/G/_A/ | B4- | B/c/4d/4e/4d/4c/ d/e/4f/4e/4f/4g/ | f z z2 | %57
 z/ c/-c/d/ ^d/=e/G/e/ | ^f2- f/g/a/b/ | c'/b/a/g/ ^f/g/f- | f/a/g z c | G>A B/c/d/=e/ | %62
 ^f/g/a/f/ g/f/=e/4d/4c'/- | c'/^f/g/a/ b/c'/!fermata!d' |] %64
V:2
 G,G,, z G,- | G,/^F,/4=E,/4F, z D, | E,=E, z E | D/^C/D z/ =C/B,/A,/ | %4
 G,/4^F,/4G,/C,/G,/ C/F,/F,/G,/ | G,/^F,/G,/A,/ D,E, | B,,B,/C/ DD | G,B,,/4C,/4D,/4B,,/4 G,, z | %8
 z/ ^F,/G,/A,/ B,A, | G,/^F,=E,/ F,/4A,/4G,F,/ | G,/A,/B,/A,/ G,/4A,/4G,/F,/4G,/4F,/ | %11
 =E,/F,/G,/E,/ ^C,/D,/E,/C,/ | F,/4=E,/4D,/ G,2 ^F, | B,=E, A,^C, | D,F,/=E,/ F,A, | %15
 D/C/4B,/4A,/4G,/4A,/ D,2 | G,G,, z G,- | G,/^F,/4=E,/4F, z D, | E,=E, z E | D/^C/D z/ =C/B,/A,/ | %20
 G,/4^F,/4G,/C,/G,/ C/F,/F,/G,/ | G,/^F,/G,/A,/ D,E, | B,,B,/C/ DD | G,B,,/4C,/4D,/4B,,/4 G,, z | %24
 z/ ^F,/G,/A,/ B,A, | G,/^F,=E,/ F,/4A,/4G,F,/ | G,/A,/B,/A,/ G,/4A,/4G,/F,/4G,/4F,/ | %27
 =E,/F,/G,/E,/ ^C,/D,/E,/C,/ | F,/4=E,/4D,/ G,2 ^F, | B,=E, A,^C, | D,F,/=E,/ F,A, | %31
 D/C/4B,/4A,/4G,/4A,/ D,2 | D,/E/E/D/ D/C/C/B,/ | B,/^F,/F,/G,/ G,/D,/D,- | %34
 D,/C,/4B,,/4C,/F,,/ F,/B,,/E,- | E,/D,/4C,/4D,/4C,/4B,,/ E,/G,,/_A,,/B,,/ | %36
 C,,/G,,/C,/B,,/ _A,,/G,,/A,,- | A,,/_A,/B,/A,/ G,/F,/E,/F,/ | G,/_A,/B, B,,>A, | %39
 G,/F,/F,/E,/ F,/G,/G,/_A,/ | C,=B,, z/ A,,/B,,/G,,/ | C,C z C,- | C,/D/E/B,/ A,/B,/C/G,/- | %43
 G,^F,/G,/ A,/B,/4C/4D/4E/4C/ | B,/4D/4C/B,/4C/4A,/ G,/4A,/4F,/E,/4F,/4D,/ | %45
 C,/E,/4D,/4E,/^F,,/ G,, z/ C,/ | D, z/ E,/ C,D, | G,/D,/4C,/4B,,/4C,/4A,,/ G,,2 | %48
 D,/E/E/D/ D/C/C/B,/ | B,/^F,/F,/G,/ G,/D,/D,- | D,/C,/4B,,/4C,/F,,/ F,/B,,/E,- | %51
 E,/D,/4C,/4D,/4C,/4B,,/ E,/G,,/_A,,/B,,/ | C,,/G,,/C,/B,,/ _A,,/G,,/A,,- | %53
 A,,/_A,/B,/A,/ G,/F,/E,/F,/ | G,/_A,/B, B,,>A, | G,/F,/F,/E,/ F,/G,/G,/_A,/ | %56
 C,=B,, z/ A,,/B,,/G,,/ | C,C z C,- | C,/D/E/B,/ A,/B,/C/G,/- | G,^F,/G,/ A,/B,/4C/4D/4E/4C/ | %60
 B,/4D/4C/B,/4C/4A,/ G,/4A,/4F,/E,/4F,/4D,/ | C,/E,/4D,/4E,/^F,,/ G,, z/ C,/ | D, z/ E,/ C,D, | %63
 G,/D,/4C,/4B,,/4C,/4A,,/ !fermata!G,,2 |] %64
V:3
 x4 | D2- D/[I:staff +1]C/B,/A,/ | G,/^C/C/4D/4C/ G2- | G^F/=E/ F/A/[I:staff -1]G/A/ | B z z A | %5
 D/4C/4E/D/C/ B,/[I:staff +1]A,/G,/A,/ | B,/D/G- GG/4^F/4G/4F/4 |[I:staff -1] G z ^F/G/A/ z/ | %8
 B/A/A/G/ G/^F/F/G/ | G z z C | B,G/F/- F/=ED/ | ^CB AC | z[I:staff +1] D/4^C/4D/- D/DD/- | %13
 D/=E/4D/4^C/=B,/ C/E/[I:staff -1]A | z[I:staff +1] D- D/=E/4F/4E/4D/4E/ | D2[I:staff -1] z2 | x4 | %17
 D2- D/[I:staff +1]C/B,/A,/ | G,/^C/C/4D/4C/ G2- | G^F/=E/ F/A/[I:staff -1]G/A/ | B z z A | %21
 D/4C/4E/D/C/ B,/[I:staff +1]A,/G,/A,/ | B,/D/G- GG/4^F/4G/4F/4 |[I:staff -1] G z ^F/G/A/ z/ | %24
 B/A/A/G/ G/^F/F/G/ | G z z C | B,G/F/- F/=ED/ | ^CB AC | z[I:staff +1] D/4^C/4D/- D/DD/- | %29
 D/=E/4D/4^C/=B,/ C/E/[I:staff -1]A | z[I:staff +1] D- D/=E/4F/4E/4D/4E/ | D2[I:staff -1] z2 | x4 | %33
 D/dc/- c/BA/ | BE DG | F/G/_A z/ BA/ | G/B/e/g/ f/e/d/c/ | B4- | %38
 B/_A/4G/4F/4G/4A/ G/F/4E/4F/4E/4D/ | E z z2 | z/ _A/A/G/ ^F/=F/d/F/ | E2- E/[I:staff +1]D/C/B,/ | %42
 A,/B,/C/D/ E/D/E- | E/C/D[I:staff -1] z A | d>c B/A/G/F/ | E/D/C/E/ D/=E/^F/4G/4[I:staff +1]A,/- | %46
 A,/E/D/C/ B,/A,/G,/^F,/ | G,2[I:staff -1] z2 | x4 | D/dc/- c/BA/ | BE DG | F/G/_A z/ BA/ | %52
 G/B/e/g/ f/e/d/c/ | B4- | B/_A/4G/4F/4G/4A/ G/F/4E/4F/4E/4D/ | E z z2 | z/ _A/A/G/ ^F/=F/d/F/ | %57
 E2- E/[I:staff +1]D/C/B,/ | A,/B,/C/D/ E/D/E- | E/C/D[I:staff -1] z A | d>c B/A/G/F/ | %61
 E/D/C/E/ D/=E/^F/4G/4[I:staff +1]A,/- | A,/E/D/C/ B,/A,/G,/^F,/ | G,2[I:staff -1] z2 |] %64

